X: 10181
M: C|
L: 1/8
K: G
|: d |\
gdga b2ag | fdad bdad |
gdga b2ag | dg fa g/g/g ga |\
gdga b2ag | agab c'bab |\
gedc B2ge | d>B c>A G/G/G G :|


